X: 21412
T: Kesh, The
R: jig
M: 6/8
K: Gmajor
D|:~G3 GAB|~A3 AB/c/d|edd gdd|edB dBA|
~G3 GAB|~A3 ABd|edd gdB|1 AGF G2D:|2 AGF G2A||
|:~B3 dBd|e/f/ge dBG|~B3 dBG|ABA AGA|B2B dBd|
ege dB/c/d|1 ~g3 aga|bgf g2A:|2 ~g3 ~a3|bge dBA||

